outputs/icons/content/save_alt_round.svg

<svg xmlns="http://www.w3.org/2000/svg" width="1200" height="1200" fill="none"><g clip-path="url(#a)"><path fill="#000" d="M950 650v250c0 27.5-22.5 50-50 50H300c-27.5 0-50-22.5-50-50V650c0-27.5-22.5-50-50-50s-50 22.5-50 50v300c0 55 45 100 100 100h700c55 0 100-45 100-100V650c0-27.5-22.5-50-50-50s-50 22.5-50 50m-300-16.5 94-94c19.5-19.5 51-19.5 70.5 0s19.5 51 0 70.5L635 789.5c-19.5 19.5-51 19.5-70.5 0L385 610c-19.5-19.5-19.5-51 0-70.5s51-19.5 70.5 0l94.5 94V200c0-27.5 22.5-50 50-50s50 22.5 50 50z"/></g><defs><clipPath id="a"><path fill="#fff" d="M0 0h1200v1200H0z"/></clipPath></defs></svg>

<svg width="1200" height="1200" viewBox="0 0 1200 1200" fill="none" xmlns="http://www.w3.org/2000/svg"><g clip-path="url(#clip0_225_3308)"><path d="M950 650V900C950 927.5 927.5 950 900 950H300C272.5 950 250 927.5 250 900V650C250 622.5 227.5 600 200 600C172.5 600 150 622.5 150 650V950C150 1005 195 1050 250 1050H950C1005 1050 1050 1005 1050 950V650C1050 622.5 1027.5 600 1000 600C972.5 600 950 622.5 950 650ZM650 633.5L744 539.5C763.5 520 795 520 814.5 539.5C834 559 834 590.5 814.5 610L635 789.5C615.5 809 584 809 564.5 789.5L385 610C365.5 590.5 365.5 559 385 539.5C404.5 520 436 520 455.5 539.5L550 633.5V200C550 172.5 572.5 150 600 150C627.5 150 650 172.5 650 200V633.5Z" fill="#1D1E23"/></g><defs><clipPath id="clip0_225_3308"><path width="24" fill="white" d="M0 0H1200V1200H0V0z"/></clipPath></defs></svg>
